X:121
T:A Waltz
O:No 121 Wm Clarke MS  Feltwell, Norfolk
I:abc2nwc
M:3/4
L:1/8
K:D
df|a^g ab ag|fe fa gf|ed eg fe|
dc dA ^GA|a^g ab ag|fe fa gf|ed eg fe|d4:|
|:(^cd)|e^d ec Ac|a^g af df|e^d ec Ac|
a^g af df|a^g ab ag|fe fa gf|e^d eg fe|d4:|

